X: 15977
T: Grass On The Path, The
R: mazurka
M: 3/4
K: Dmajor
|:AG|FD FA de|f2 f2 ef|ge cA de|fd A2 AG|
FD FA de|f2 f2 ef|ge cA Bc|df d2:|
|:ef|ge c2 ge|fd A2 A^A|BG Bd cB|AF D2 ef|
ge c2 ge|fd A2 A_A|GE GB ec|d2 d2:|

